X: 3363
T: Ben My Chree
R: polka
M: 2/4
K: Amajor
|c2 BA|ce f2|af ec|BA cd|
c2 BA|ce f2|f/g/a ge|ce fe|
c2 BA|ce f2|af ec|BA F2|
EF AB|ce f2|af ec|cB B2|
a2 ge|ce f2|af ec|BA c/d/e|
a2 ge|ce f2|f/g/a ge|fb ag|
a2 ge|ce f2|af ec|BA F2|
EF AB|ce f2|af ec|cB B2|

